X:4
T:Jolly beggar man, The
T:Red-haired boy, The
R:Reel
R:Hornpipe
O:Scotland
M:4/4
K:AMix
gf|\
eA (3AGA ABcd | efec d2cd | \
e2A2 ABcA | BGEF G2FG | \
E2A2 ABcd | efec d2cd |
e2a>b aged | c2A2 A2 ::\
(3def |\
g2 (3agf gfef | gfec d2cd |
e2A2 ABcA | BGEF G2FG |\
E2A2 ABcd | efec d2cd | eaa2 aged | cABG A2:|**
